X:1
T:O souverain pasteur
T:O souverain pasteur
T:Tielman Susato
C:Tielman Susato
%%score [ 1 2 [ 3 4 ] ]
L:1/8
Q:1/4=88
M:2/2
K:C
V:1 treble nm="Superius" snm="S"
V:2 treble nm="Altus" snm="A"
V:3 treble-8 nm="Tenor 1" snm="T 1"
V:4 treble-8 nm="Tenor 2" snm="T 2"
V:1
 c8 | A4 c4 | B8 | z2 G2 c3 B | A4 G4 | z2 d2 e4- | e2 d2 c4 | B4 z2 d2 | g6 f2 | e2 d2 c2 B2 | %10
w: O|sou- ve-|rain|pa- steur et|mais- tre,|pa- steur|_ et mais-|tre, re-|gar- de|ce trop- peau _|
w: Et|de te|biens|seuf- fre le|pais- tre,|seuf- fre|_ le pais-|tre, sans|des- or-|don- * * né'ap-|
 A4 G4- | G4 z2 G2 | c3 B A2 G2 | d2 c3 A d2- | dc c4 B2 | c4 z4 :| c6 c2 | B6 d2 | d2 dd c4 | %19
w: pe- tit,|_ re-|gar- * * de|ce trop- * peau|_ _ pe- *|tit,|nu- ris-|sant pe-|tit à pe- tit|
w: pe- tit,|_ sans|des- * * or-|don- né'ap- * *|* * pe- *|tit,||||
 z4 z2 c2 | c2 c2 BBGG | A2 G4 g2 | g2 g2 e2 c2 | d2 e3 d/e/ f/e/d/c/ | B4 z2 B2 | c2 B2 A4- | %26
w: à|ce jour dhuy ta cre- a-|tu- re, à|ce jour dhuy ta|cre- a- * * tu- * * *|re, par|ce- luy qui|
w: |||||||
 A2 A2 B3 A | G4 z2 G2 | c4 d4 | e8 | z2 G2 c4 | d4 e2 g2 | f2 e3 d cB | A2 G2 e2 d2- | dc c4 B2 | %35
w: _ pour nous ves-|tit ung-|corps sub-|ject,|ung corps|sub- ject à|no- * * * *|* ri- tu- *||
w: |||||||||
 c4 z2 G2 | c4 d4 | e8 | z2 G2 c4 | d4 e2 g2 | f2 e3 d cB | A2 G2 e2 d2- | dc c4 B2 | c8 |] %44
w: re, ung|corps sub-|ject,|ung corps|sub- ject à|no- * * ri- *|tu- * * *||re.|
w: |||||||||
V:2
 G8 | F4 A4 | G4 D2 G2- | GF E3 D C2- | CB, A,2 B,2 C2- | C2 B,2 C2 E2- | EF G4 F2 | G8 | %8
w: O|sou- ve-|rain pa- steur|_ et mais- * *||||tre,|
w: Et|de tes|biens seuf- fre|_ le pais- * *||||tre,|
 z4 z2 G2 | c2 B2 A2 G2 | F3 E D4 | E8 | E4 F2 G2 | A2 G2 FD G2- | G2 F2 G4 | E8 :| G3 F/G/ A2 F2 | %17
w: re-|gar- de ce trop-|peau _ pe-|tit,|re- gar- de|ce trop- * * peau-|_ _ pe-|tit,|nu- * * * ris-|
w: sans|des- or- don- *|né'ap- * pe-|tit,|sans des- or-|don- * né'ap- * *|* * pe-|tit,||
 G6 _B2 | _B2 GG A2 z A | A2 A2 GGEE | F2 EE G2 G2 | F2 D2 E3 D | CDEF G2 A2- | AG G4 F2 | G8 | %25
w: sant pe-|tit à pe- tit à|ce jour dhuy ta cre- a-|tu- re, à ce jour|dhuy ta cre- a-|tu- * * * * *||re,|
w: ||||||||
 z2 E2 F4- | F2 F2 D2 D2 | E3 D EF G2 | A2 G2 F4 | E4 z2 E2 | G2 G2 A2 c2- | c2 B2 A2 G2 | %32
w: par ce-|* luy qui pour|nous ves- tit _ _|ung corps sub-|ject, ung|corps sub- ject à|_ no- ri- tu-|
w: |||||||
 A2 GF E4 | C2 E3 F G2 | A2 F2 G2 D2 | E3 F G2 G2 | A2 G2 F4 | E4 z2 E2 | G2 G2 A2 c2- | %39
w: |||* * * re,|ung corps sub-|ject ung|corps sub- ject à|
w: |||||||
 c2 B2 A2 G2 | A2 G2 E2 A,2- | A,2 E3 F G2 | A2 F2 G4 | E8 |] %44
w: _ no- ri- tu-||||re.|
w: |||||
V:3
 e8 | c4 f3 d | d2 d2 g3 f | e3 d c4- | c2 d2 e4 | d4 c3 B/A/ | G2 d2 e2 c2 | d2 d2 g4- | %8
w: O|sou- ve- *|rain pa- steur et|mais- * *|* tre, pa-|* steur et _|mais- * * *|tre, re- gar-|
w: Et|de tes _|biens seuf- fre le|pais- * *|* tre, seuf-|* fre le _|pais- * * *|tre, sans- des-|
 g2 f2 e2 d2 | cA B2 z2 G2 | A2 c4 B2 | c2 G2 c3 B | A2 G2 z2 c2 | f2 e2 d2 B2 | c4 d4 | c8 :| %16
w: * de ce trop-|peau pe- tit, ce-|trop- peau pe-|tit, re- gar- *|* de, re-|gar- de ce trop-|peau pe-|tit,|
w: * or- don- né|ap- pe- tit, sans|des- or- don-|* n''ap- pe- *|* tit, sans|des- or- don- né'ap-|* pe-|tit,|
 e6 c2 | d4 d2 g2 | f2 d2 e4- | e8 | z2 e2 e2 e2 | d2 B2 cB cd | e2 z e e2 e2 | d2 B2 cc c2 | %24
w: nu- ris-|sant pe- tit|à pe- tit,|_|à ce jour|dhuy ta cre- a- tu- *|re, à- ce jour|dhuy ta cre- a- tu-|
w: ||||||||
 d2 z d e2 d2 | c6 c2 | d2 c2 B4- | B2 B2 c2 B2 | AG c4 B2 | c2 G2 c3 d | e2 g2 f2 e2 | d4 c4 | %32
w: re, par ce- luy|qui pour|nous ves- tit,-|_ qui pour nous|ves- * tit ung|corps sub- ject à|no- ri- tu- *|* re,|
w: ||||||||
 z2 G2 c3 d | e2 g3 f d2 | e2 c2 d4 | c3 d e2 d2- | d2 c4 B2 | c2 G2 c3 d | e2 g2 f2 e2 | d4 c4 | %40
w: ung corps _|_ sub- * *|ject à no-|ri- * * tu-||re, ung corps- sub-|ject à no- ri-|tu- re,|
w: ||||||||
 z2 G2 c3 d | e2 g3 f d2 | e2 c2 d4 | c8 |] %44
w: ung corps sub-|ject à no- ri-|tu- * *|re.|
w: ||||
V:4
 c8 | F4 F4 | G6 G2 | c3 B A3 G | F4 E2 C2 | G4 C2 c2- | c2 B2 A4 | G8 | G4 c4- | c2 G2 A2 E2 | %10
w: O|sou- ve-|rain pa-|steur et mais- *|* tre, pa-|steur et mais-||tre,|re- gar-|* de ce trop-|
w: Et|de tes|biens seuf-|fre le pais- *|* tre, seuf-|fre le pais-||tre,|sans des-|* or- don- *|
 F4 G4 | C8 | C4 F2 E2 | D2 E2 F2 G2 | A4 G4 | C8 :| c4 A4 | G6 G2 | _B2 BB A4- | A4 z2 A2 | %20
w: peau pe-|tit,|re- gar- de|ce trop- peau _|_ pe-|tit,|nu- ris-|sant pe-|tit à pe- tit,|_ à|
w: né'ap- pe-|tit,|sans des- or-|don- né'ap- * *|* pe-|tit.|||||
 A2 A2 G2 E2 | FF G2 C4- | C2 c2 c2 c2 | BBGG A4 | G4 z2 G2 | A2 G2 F4- | F2 F2 G3 F | E4 z2 E2 | %28
w: ce jour dhuy ta|cre- a- tu- re,|_ à ce jout|dhuy ta cre- a- tu-|re, par|ce- luy qui|_ pour nous ves-|tit, qui|
w: ||||||||
 F2 E2 D4 | C8- | C4 z4 | z4 z2 C2 | F2 G2 A4 | c6 B2 | A4 G4 | C4 G4 | F2 E2 D4 | C8- | C4 z4 | %39
w: pour nous ves-|tit|_|ung|corps sub- ject|à no-|ri- tu-|re, à|no- ri- tu-|re,|_|
w: |||||||||||
 z4 z2 C2 | F2 G2 A4 | c6 B2 | A4 G4 | C8 |] %44
w: ung|corps sub- ject|à no-|ri- tu-|re.|
w: |||||

